X: 991
T: Jimmy O'Brian's Jig
T: Port Seamus Ua Brian
R:double jig
C:"collected by F.O'Neill"
S:991 O'Neill's Music of Ireland
B:O'Neill's 991
Z:Transcribed by Robert Thorpe (thorpe@skep.com)
Z:ABCMUS 1.0
M:6/8
K:G
B|c3 BdB|AGA BGE|DEG GAB|AGA BGE|
|cec BdB|AGA BGE|DEG AGA|BGG G2:|
d|gfe dBd|edc Bcd|gfe dBd|ecA A2 d|
|gfe dBd|edc Bcd|DEG AGA|BGG G2:|
D|GBd GBd|FAA FAA|GBd GBd|eAA A2 D|
|GBd GBd|FAA FAA|DEG AGA|BGG G2:|


